X: 1
T: O'er the Moor Among the Heather
T: Aldavaligh
O: MacGlashan Collection I-24
S: Printed copy in the Concord Slow Scottish collection, arr. Elke Baker, "XV-24" at top right
R: air
Z: 2016 John Chambers <jc:trillian.mit.edu>
M: C
L: 1/16
K: D
|:\
"D"A,2D2D3E D3ED2A,2 | "Em"B,2E2E3F E3FE3D |\
"D"F2A2A3B d3ef3e | "G"d3B"D"A3F "A"E3F"D"E2D2 :|\
"D"A2d2d3e d3ed2A2 |
"Em"B2e2e2f2 e3fe2d2 |\
"D"f3ed2B2 A2B2d2e2 | "G"d3B "D"BAdF "A"E3F "D"E2D2 ||\
"D"D2d2d2e2 f2ef d2A2 | "Em"B2e2 egfa g3fe2d2 |
"D"f3ed3B AFAB d3e | "D"fbef d3F "A"E3F"D"E2D2 |]|\
"D"A,B,DE DA,DE FGEF DEDA, | "Em"B,EEF EB,EF G3FE2D2 |
"D"DEFG A3B AFAB d3e | "D"fedc d3F "A"EFGF "D"E2D2 ||\
"D"A,B,DE DA,DE FGEF DEDA, |
"Em"B,EEF EB,EF GAFG EFED |\
"D"DEFG A3B ADFA d3e | "D"f{e}dE{d}c d3F "A"E3F"D"E2D2 |]
|:\
"D"A,DFA d3e (3fdf (3ece d2A2 | "Em"EGB^d edef gafg e2=d2 |\
"D"f2df "G"e2Bd "D"A2FA d3A | "D"fdeB dAdF "A"EFGF "D"E2D2 :|
